src/assets/flags/ALL.svg

<svg width="512" height="512" viewBox="0 0 512 512" fill="none" xmlns="http://www.w3.org/2000/svg"><mask id="a" style="mask-type:alpha" maskUnits="userSpaceOnUse" x="0" y="0" width="512" height="512" viewBox="0 0 512 512"><path d="M256 512c141.385 0 256-114.615 256-256S397.385 0 256 0 0 114.615 0 256s114.615 256 256 256z" fill="#fff"/></mask><g mask="url(#a)"><path d="M0 0h512v512H0V0z" fill="#D80027"/><path d="M400.4 186.494h-92.7a33.293 33.293 0 0 0 6.618-36.231 33.31 33.31 0 0 0-12.367-14.733 33.309 33.309 0 0 0-18.451-5.436 33.308 33.308 0 0 0-27.8 14.9 33.39 33.39 0 0 0-22.656-14.584 33.393 33.393 0 0 0-34.809 17.506 33.393 33.393 0 0 0-1.8 26.884 33.387 33.387 0 0 0 7.265 11.694H111a45.8 45.8 0 0 0 46 44.5h-1.5c0 24.6 20 44.6 44.5 44.6 0 8 2.1 15.4 5.8 21.8l-37 37 28.4 28.3 40.2-40.2a30.41 30.41 0 0 0 4.9 1.4l-24.3 54.8 37.7 40.8 37.7-40.8-24.3-54.8a30.309 30.309 0 0 0 4.9-1.4l40.2 40.2 28.3-28.3-37-37a44.206 44.206 0 0 0 5.9-21.8c24.5 0 44.5-20 44.5-44.6h-1.5c24.6 0 46-19.9 46-44.5z" fill="#333"/></g></svg>

<svg width="512" height="512" viewBox="0 0 512 512" fill="none" xmlns="http://www.w3.org/2000/svg">
<mask id="mask0_518_309" style="mask-type:alpha" maskUnits="userSpaceOnUse" x="0" y="0" width="512" height="512">
<path d="M256 512C397.385 512 512 397.385 512 256C512 114.615 397.385 0 256 0C114.615 0 0 114.615 0 256C0 397.385 114.615 512 256 512Z" fill="white"/>
</mask>
<g mask="url(#mask0_518_309)">
<path d="M0 0H512V512H0V0Z" fill="#D80027"/>
<path d="M400.4 186.494H307.7C312.245 181.776 315.297 175.822 316.474 169.377C317.651 162.932 316.901 156.284 314.318 150.263C311.734 144.243 307.433 139.118 301.951 135.53C296.469 131.943 290.051 130.052 283.5 130.094C277.996 130.087 272.575 131.444 267.724 134.044C262.873 136.645 258.741 140.407 255.7 144.994C253.144 141.123 249.809 137.827 245.908 135.316C242.008 132.805 237.627 131.134 233.044 130.41C228.462 129.685 223.78 129.923 219.295 131.109C214.81 132.294 210.621 134.401 206.995 137.295C203.369 140.188 200.386 143.806 198.235 147.916C196.084 152.026 194.814 156.54 194.504 161.168C194.194 165.797 194.851 170.439 196.435 174.8C198.018 179.16 200.492 183.143 203.7 186.494H111C111.339 198.449 116.341 209.797 124.937 218.113C133.533 226.428 145.04 231.052 157 230.994H155.5C155.5 255.594 175.5 275.594 200 275.594C200 283.594 202.1 290.994 205.8 297.394L168.8 334.394L197.2 362.694L237.4 322.494C238.991 323.097 240.63 323.565 242.3 323.894L218 378.694L255.7 419.494L293.4 378.694L269.1 323.894C270.77 323.566 272.409 323.097 274 322.494L314.2 362.694L342.5 334.394L305.5 297.394C309.321 290.761 311.354 283.249 311.4 275.594C335.9 275.594 355.9 255.594 355.9 230.994H354.4C379 230.994 400.4 211.094 400.4 186.494V186.494Z" fill="#333333"/>
</g>
</svg>
